!!!COM: Palestrina, Giovanni Perluigi da
!!!OPR: Missa Dum complerentur
!!!OMD: Credo
!!!OTL: First Section
**kern	**kern	**kern	**kern	**kern	**kern
*Ibass	*Itenor	*Itenor	*Icalto	*Icalto	*Icant
!Bassus	!Tenor 2	!Tenor 1	!Altus 2	!Altus 1	!Cantus
*clefF4	*clefGv2	*clefGv2	*clefG2	*clefG2	*clefG2
*k[b-]	*k[b-]	*k[b-]	*k[b-]	*k[b-]	*k[b-]
*F:ion	*F:ion	*F:ion	*F:ion	*F:ion	*F:ion
*M4/2	*M4/2	*M4/2	*M4/2	*M4/2	*M4/2
=1	=1	=1	=1	=1	=1
0r	0f	0F	0r	0a	0cc
=2	=2	=2	=2	=2	=2
0r	1e	1c	0r	1g	1cc
.	2f	1F	.	1a	1cc
.	2a	.	.	.	.
=3	=3	=3	=3	=3	=3
0r	2g	2B-	0r	2b-	2dd
.	2.f	2B-	.	2b-	2dd
.	.	1c	.	1g	1cc
.	8e	.	.	.	.
.	8d	.	.	.	.
.	2e	.	.	.	.
=4	=4	=4	=4	=4	=4
0r	1f	2F	0r	1a	2cc
.	.	2f	.	.	2cc
.	2r	4f	.	1a	2.ff
.	.	4e	.	.	.
.	2f	4d	.	.	.
.	.	4c	.	.	4ee
=5	=5	=5	=5	=5	=5
0r	4f	1.B-	0r	2b-	1.dd
.	4e	.	.	.	.
.	4d	.	.	4B-	.
.	4c	.	.	4c	.
.	2B-	.	.	4d	.
.	.	.	.	4e	.
.	2c	2A	.	2f	2cc
=6	=6	=6	=6	=6	=6
0r	2d	1G	0r	1g	1b-
.	2e	.	.	.	.
.	1f	2F	.	2cc	2a
.	.	[2f	.	2cc	2a
=7	=7	=7	=7	=7	=7
0r	1c	2f]	0r	1cc	1g
.	.	2e	.	.	.
.	1F	[1f	.	1a	[1cc
=8	=8	=8	=8	=8	=8
1.F	1.c	1f]	1.a	2r	0cc]
.	.	.	.	1f	.
.	.	1r	.	.	.
2F	2c	.	2a	2f	.
=9	=9	=9	=9	=9	=9
2C	2c	0r	2g	2e	0r
2C	2c	.	2g	2e	.
1F	1c	.	1a	1f	.
=10	=10	=10	=10	=10	=10
2BB-	2d	0r	2b-	2f	0r
2BB-	2d	.	2b-	2f	.
2C	1c	.	1g	[1e	.
[2c	.	.	.	.	.
=11	=11	=11	=11	=11	=11
4c]	2r	0r	2.cc	1e]	0r
4B-	.	.	.	.	.
4A	2.c	.	.	.	.
4G	.	.	4b-	.	.
[1F	.	.	4a	2.cc	.
.	4B-	.	4g	.	.
.	4A	.	[2f	.	.
.	4G	.	.	4b-	.
=12	=12	=12	=12	=12	=12
2F]	2F	0r	2f]	2a	0r
2E	2G	.	2c	2g	.
2D	2A	.	2d	2f	.
2C	2c	.	2g	2e	.
=13	=13	=13	=13	=13	=13
2G	2c	0r	2.g	2d	0r
2G	2B	.	.	2d	.
.	.	.	4g	.	.
1C	1c	.	1e	1g	.
=14	=14	=14	=14	=14	=14
1.F	1.c	1.A	1.f	1.a	1.cc
2F	2c	2A	2f	2a	2cc
=15	=15	=15	=15	=15	=15
1F	1c	1A	1a	1cc	1ff
1C	2e	1c	2g	1cc	1ee
.	[2g	.	4G	.	.
.	.	.	4A	.	.
=16	=16	=16	=16	=16	=16
1.G	2g]	1.d	4B-	1.b-	1.dd
.	.	.	4c	.	.
.	2g	.	4d	.	.
.	.	.	4G	.	.
.	4G	.	2g	.	.
.	4A	.	.	.	.
2G	4B-	2d	2g	2b-	2dd
.	4c	.	.	.	.
=17	=17	=17	=17	=17	=17
1D	4d	1d	2.f	1.a	1dd
.	4e	.	.	.	.
.	1f	.	.	.	.
.	.	.	4g	.	.
[1F	.	[1A	1a	.	[1cc
.	4F	.	.	[2f	.
.	4G	.	.	.	.
=18	=18	=18	=18	=18	=18
1F]	4A	1A]	1f	4f]	1cc]
.	4B-	.	.	4g	.
.	2c	.	.	1a	.
1F	2F	1A	1f	.	1a
.	[2f	.	.	2cc	.
=19	=19	=19	=19	=19	=19
0BB-	4f]	0B-	2d	1b-	0dd
.	4e	.	.	.	.
.	2.d	.	4B-	.	.
.	.	.	4c	.	.
.	.	.	4d	1f	.
.	4c	.	4e	.	.
.	2B-	.	4f	.	.
.	.	.	4g	.	.
=20	=20	=20	=20	=20	=20
1F	1.A	1c	1a	2r	2cc
.	.	.	.	2.a	2.cc
1r	.	1r	1r	.	.
.	.	.	.	4f	4a
.	2G	.	.	2g	2b-
=21	=21	=21	=21	=21	=21
0r	1F	2r	1r	4a	4cc
.	.	.	.	4g	4b-
.	.	2.f	.	4f	4a
.	.	.	.	4e	4g
.	1r	.	2r	2d	2f
.	.	4d	.	.	.
.	.	2e	[2cc	2c	2g
=22	=22	=22	=22	=22	=22
0r	0r	2f	4cc]	1f	2a
.	.	.	4a	.	.
.	.	2d	2b-	.	4g
.	.	.	.	.	4f
.	.	2c	4cc	2e	2g
.	.	.	4b-	.	.
.	.	[2F	4a	4f	[2cc
.	.	.	4g	4g	.
=23	=23	=23	=23	=23	=23
0r	0r	2F]	2f	4a	2cc]
.	.	.	.	4g	.
.	.	1B-	2d	4f	1dd
.	.	.	.	4e	.
.	.	.	2.f	2d	.
.	.	2F	.	2a	[2cc
.	.	.	4e	.	.
=24	=24	=24	=24	=24	=24
1r	2r	1G	2d	1g	2cc]
.	1g	.	2d	.	2b
2r	.	1c	1e	2r	1cc
[2c	2a	.	.	[2e	.
=25	=25	=25	=25	=25	=25
2c]	2g	0r	0r	2e]	0r
2d	2.f	.	.	2f	.
1c	.	.	.	1g	.
.	8e	.	.	.	.
.	8d	.	.	.	.
.	2e	.	.	.	.
=26	=26	=26	=26	=26	=26
2A	4f	0r	0r	2a	0r
.	4e	.	.	.	.
2.B-	4d	.	.	4g	.
.	4c	.	.	4f	.
.	4d	.	.	4g	.
4A	4c	.	.	4f	.
4A	4c	.	.	[2f	.
8G	8B-	.	.	.	.
8F	8A	.	.	.	.
=27	=27	=27	=27	=27	=27
1G	1B-	1g	1r	2f]	1r
.	.	.	.	2e	.
1F	1c	2a	2r	1f	2r
.	.	[2f	[2a	.	[2cc
=28	=28	=28	=28	=28	=28
0r	0r	4f]	2a]	0r	2cc]
.	.	4f	.	.	.
.	.	2d	2b-	.	2dd
.	.	[1f	2.a	.	2.cc
.	.	.	4a	.	4cc
=29	=29	=29	=29	=29	=29
0r	0r	2f]	2f	0r	2a
.	.	2e-	2.g	.	2.b-
.	.	1d	.	.	.
.	.	.	4f	.	4a
.	.	.	[2f	.	4a
.	.	.	.	.	8g
.	.	.	.	.	8f
=30	=30	=30	=30	=30	=30
1r	0r	1c	2f]	2r	2g
.	.	.	2e	2g	2g
2r	.	[1F	1f	[1a	[1f
2c	.	.	.	.	.
=31	=31	=31	=31	=31	=31
2c	2r	1F]	2r	2a]	1f]
2d	2f	.	2f	2a	.
1c	2f	1r	2g	1cc	1r
.	2e	.	2g	.	.
=32	=32	=32	=32	=32	=32
1F	1.f	2r	1a	2cc	2r
.	.	2F	.	2a	2cc
1r	.	2F	[1f	2a	2cc
.	2d	2B-	.	2b-	2dd
=33	=33	=33	=33	=33	=33
1r	1r	2.F	1f]	2.a	2.cc
.	.	4F	.	4a	4cc
2r	2r	1F	2r	2f	1a
[2F	[2c	.	[2a	[2f	.
=34	=34	=34	=34	=34	=34
2F]	2c]	0r	2a]	2f]	0r
2BB-	2d	.	2b-	2f	.
1F	1c	.	1a	1f	.
=35	=35	=35	=35	=35	=35
2C	1c	1r	1g	2e	2r
2c	.	.	.	2g	2ee
2c	1r	2r	1cc	2g	2ee
2F	.	2c	.	2a	2ff
=36	=36	=36	=36	=36	=36
1.c	0r	4c	2cc	2.g	2.ee
.	.	4d	.	.	.
.	.	4e	4c	.	.
.	.	4f	4d	4f	4dd
.	.	1g	4e	2e	2cc
.	.	.	4c	.	.
2B-	.	.	[2g	2d	[2dd
=37	=37	=37	=37	=37	=37
1A	0r	1c	2g]	2e	4dd]
.	.	.	.	.	4cc
.	.	.	2f	2c	1cc
1G	.	1d	2.g	2r	.
.	.	.	.	[2g	2b
.	.	.	4f	.	.
=38	=38	=38	=38	=38	=38
1C	2r	1c	2e	4g]	2cc
.	.	.	.	4f	.
.	1c	.	1g	4e	1cc
.	.	.	.	4d	.
1r	.	1r	.	2e	.
.	2G	.	2g	2d	2b-
=39	=39	=39	=39	=39	=39
0r	2A	0r	2f	2.c	2a
.	2c	.	2e	.	2g
.	.	.	.	4c	.
.	1F	.	1f	1c	1a
=40	=40	=40	=40	=40	=40
1r	1c	1r	1e	2c	1g
.	.	.	.	2.cc	.
[1F	[1c	[1f	1r	.	2.a
.	.	.	.	4b-	.
.	.	.	.	[2a	.
.	.	.	.	.	4b-
=41	=41	=41	=41	=41	=41
2F]	2c]	2f]	0r	2a]	1cc
2C	2c	2e	.	2g	.
2D	2A	2d	.	2f	1r
2F	2A	2c	.	2f	.
=42	=42	=42	=42	=42	=42
2BB-	2B-	2d	0r	2f	0r
2F	2A	2c	.	2f	.
1G	4d	1B-	.	1b-	.
.	4c	.	.	.	.
.	4d	.	.	.	.
.	4e	.	.	.	.
=43	=43	=43	=43	=43	=43
0F	1f	1c	2r	1.a	1r
.	.	.	2.cc	.	.
.	1c	[1f	.	.	2r
.	.	.	4b-	.	.
.	.	.	[2a	[2cc	[2ff
=44	=44	=44	=44	=44	=44
0r	0r	2f]	2a]	2cc]	2ff]
.	.	2c	2g	2cc	2ee
.	.	2d	2.f	2a	2dd
.	.	2f	.	2a	2cc
.	.	.	4f	.	.
=45	=45	=45	=45	=45	=45
0r	0r	1B-	2f	1b-	1dd
.	.	.	2g	.	.
.	.	2c	2e	2g	2cc
.	.	2d	[2f	2f	2b-
=46	=46	=46	=46	=46	=46
2r	2r	1c	2f]	2g	1cc
1c	1g	.	4e	1cc	.
.	.	.	4d	.	.
.	.	1r	4e	.	1r
.	.	.	4c	.	.
2G	2g	.	2d	2b-	.
=47	=47	=47	=47	=47	=47
2A	2e	2r	0c	2a	0r
2c	2e	2c	.	2g	.
1F	1f	4A	.	1a	.
.	.	4B-	.	.	.
.	.	4c	.	.	.
.	.	4A	.	.	.
=48	=48	=48	=48	=48	=48
2G	2d	2B	0r	2g	0r
2A	2c	1c	.	2f#	.
1G	1d	.	.	[1g	.
.	.	2B	.	.	.
=49	=49	=49	=49	=49	=49
0r	1e	2c	0r	2g]	2r
.	.	2A	.	2cc	2cc
.	1r	2G	.	2b-	2dd
.	.	2F	.	2a	2ff
=50	=50	=50	=50	=50	=50
0r	2r	1c	1r	1g	4ee
.	.	.	.	.	4dd
.	2c	.	.	.	4cc
.	.	.	.	.	4b-
.	2d	1r	2r	2f	2.a
.	2f	.	2f	2d	.
.	.	.	.	.	4b-
=51	=51	=51	=51	=51	=51
0r	2e	0r	2g	2c	2cc
.	4d	.	2b-	4B-	2.dd
.	4e	.	.	4c	.
.	4f	.	4a	4d	.
.	4g	.	4g	4e	4cc
.	4a	.	4f	4f	[2a
.	4g	.	4e	4g	.
=52	=52	=52	=52	=52	=52
0r	2f	0r	2d	4a	4a]
.	.	.	.	4f	4b-
.	2e	.	4c	2.g	1cc
.	.	.	8d	.	.
.	.	.	8e	.	.
.	1d	.	2f	.	.
.	.	.	.	4f	.
.	.	.	2f	[2f	2b
=53	=53	=53	=53	=53	=53
2r	1c	2r	2g	4f]	1cc
.	.	.	.	8e	.
.	.	.	.	8d	.
2A	.	2c	2cc	4e	.
.	.	.	.	4f	.
2G	1r	2d	2b-	2g	1r
2F	.	2f	2a	[2c	.
=54	=54	=54	=54	=54	=54
4c	0r	4e	2g	4c]	0r
4B-	.	4d	.	4d	.
4A	.	4c	2a	2e	.
4G	.	4B-	.	.	.
2F	.	2A	2.cc	2f	.
2E	.	2G	.	2g	.
.	.	.	4b-	.	.
=55	=55	=55	=55	=55	=55
1F	1r	2A	4a	1f	2r
.	.	.	4g	.	.
.	.	2.c	2a	.	2cc
1D	2r	.	1f	1r	2dd
.	.	4B	.	.	.
.	2d	4B	.	.	2ff
.	.	4A	.	.	.
=56	=56	=56	=56	=56	=56
1C	2e	1c	1g	2r	4ee
.	.	.	.	.	4dd
.	2g	.	.	2c	4cc
.	.	.	.	.	4b-
1r	2f	2r	1r	2d	2a
.	2e	2g	.	2e	2g
=57	=57	=57	=57	=57	=57
0r	2d	2f	0r	2f	2a
.	4c	2e	.	2g	2.cc
.	8d	.	.	.	.
.	8e	.	.	.	.
.	1f	1d	.	2a	.
.	.	.	.	.	4b
.	.	.	.	4g	4b
.	.	.	.	4f	8a
.	.	.	.	.	8b
=58	=58	=58	=58	=58	=58
0r	0g	2c	0r	2e	2cc
.	.	2B	.	2d	2dd
.	.	1c	.	1e	[1cc
=59	=59	=59	=59	=59	=59
2r	1f	2F	2r	1a	1cc]
2F	.	2f	2a	.	.
2G	1r	2e	2g	2r	1r
2B-	.	2d	2f	2d	.
=60	=60	=60	=60	=60	=60
4A	0r	1c	4cc	2e	1r
4G	.	.	4b-	.	.
4F	.	.	4a	1f	.
4E	.	.	4g	.	.
2D	.	2d	2f	.	2r
2C	.	2e	2e	2g	2cc
=61	=61	=61	=61	=61	=61
1BB-	2r	1f	1d	1b-	2dd
.	2d	.	.	.	2ff
1C	2e	2r	[1c	4g	4ee
.	.	.	.	4f	4dd
.	2g	[2c	.	4e	4cc
.	.	.	.	4d	4b-
=62	=62	=62	=62	=62	=62
0F	2f	4c]	1c_	2c	4a
.	.	4B-	.	.	4g
.	4c	2A	.	2f	2f
.	4B-	.	.	.	.
.	4A	4F	1c_	1f	1a
.	4G	4G	.	.	.
.	2F	4A	.	.	.
.	.	4B-	.	.	.
=63	=63	=63	=63	=63	=63
1C	1G	2c	1c]	1e	1g
.	.	2G	.	.	.
1r	1r	1r	1r	1r	1r
=64	=64	=64	=64	=64	=64
0r	0r	0c	0e	0g	0cc
=65	=65	=65	=65	=65	=65
0r	0r	1G	1d	1g	1b
.	.	1c	1e	1g	1cc
=66	=66	=66	=66	=66	=66
0r	0r	1.F	2.f	2.a	4cc
.	.	.	.	.	4b-
.	.	.	.	.	4a
.	.	.	4g	4b-	4g
.	.	.	2a	2cc	2f
.	.	2F	2a	2cc	2ff
=67	=67	=67	=67	=67	=67
1r	1r	1c	1g	1cc	1ee
1F	1f	1c	1a	2r	1ff
.	.	.	.	2c	.
=68	=68	=68	=68	=68	=68
1.BB-	1.f	1.B-	1.b-	1.d	1.dd
2BB-	2f	2B-	2b-	2d	2dd
=69	=69	=69	=69	=69	=69
1BB-	2f	1B-	1b-	1d	1dd
.	4F	.	.	.	.
.	4G	.	.	.	.
1F	4A	2.c	1a	1f	1cc
.	4B-	.	.	.	.
.	2c	.	.	.	.
.	.	4d	.	.	.
=70	=70	=70	=70	=70	=70
0C	4c	4e	1g	0e	1cc
.	4d	4f	.	.	.
.	4e	2g	.	.	.
.	4f	.	.	.	.
.	2g	2c	2r	.	2r
.	[2e	[2c	[2g	.	[2cc
=71	=71	=71	=71	=71	=71
0r	2e]	2c]	2g]	0r	2cc]
.	2e	2c	2g	.	2cc
.	1f	1B-	1b-	.	1dd
=72	=72	=72	=72	=72	=72
0r	2f	1F	1a	0r	1cc
.	2f	.	.	.	.
.	2d	1G	1g	.	1b-
.	[2g	.	.	.	.
=73	=73	=73	=73	=73	=73
0r	4g]	1A	1cc	1r	1a
.	4f	.	.	.	.
.	1f	.	.	.	.
.	.	1c	1cc	2r	1g
.	4e	.	.	2g	.
.	4d	.	.	.	.
=74	=74	=74	=74	=74	=74
0C	1e	0c	0g	4g	0cc
.	.	.	.	4f	.
.	.	.	.	4e	.
.	.	.	.	4d	.
.	2r	.	.	4e	.
.	.	.	.	4d	.
.	2e	.	.	4c	.
.	.	.	.	4B-	.
=75	=75	=75	=75	=75	=75
1F	1f	1c	1a	2A	1cc
.	.	.	.	4c	.
.	.	.	.	4d	.
1C	1e	2c	2g	4e	1cc
.	.	.	.	4f	.
.	.	[2G	[2cc	2g	.
=76	=76	=76	=76	=76	=76
1G	1d	2G]	2cc]	2.g	1.dd
.	.	2g	4b	.	.
.	.	.	4a	8f	.
.	.	.	.	8e	.
1G	1d	2.g	2b	2d	.
.	.	.	2b	2g	2dd
.	.	4f	.	.	.
=77	=77	=77	=77	=77	=77
0C	0c	0e	0cc	0g	0ee
*-	*-	*-	*-	*-	*-
!!!CDT: 1525/^1526/-1594/2/2
!!!OCY: Italia
!!!AGN: Mass (Parody)
!!!AST: renaissance, vocal
!!!ASW: Motet 1569 (Palestrina)
!!!PWK: Masses, Book 8
!!!RNB: Cadence finals: C
!!!YOR: Le Opere Complete, v. 24, p. 117
!!!YOO: Rome, Italy: Fratelli Scalera
!!!END: 1992//
!!!EED: John Miller
!!!YEC: Copyright 2000, John Miller
!!!YEN: United States of America
!!!YEM: Rights to all derivative electronic formats reserved.
!!!YEM: Refer to licensing agreement for further details.
!!!YEM: This file must be accompanied by the licensing agreement.
!!!YEM: A copy of the licensing agreement may be found at http://www.music-cog.ohio-state.edu/HumdrumDatabases/Palestrina/license.txt
!!!EMD: converted to Humdrum by Bret Aarden
